X: 81
T:Curly Mike (#277)
M:4/4
L:1/8
S:Rice-Walsh manuscript
R:Reel
K:D
E2 (3GFE BEFA|(3Bcd Ad (3Bcd AF|D2 (3FED ADFA|(3Bcd Ad (3Bcd AF|
E2 (3GFE BEFA|(3Bcd Ad (3Bcd AF|D2 (3FED ADFA|(3Bcd Ad Be e2||
e2 (3gfe bege|bege bege|defg afdf|afdf afdf|
e2 (3gfe bege|bege bege|g2 gf gbag|fgaf be e2||

